X: 1215
T: The Bloom of Youth
M:C|
L:1/8
R:Reel
B:O'Neill's 1215
N:Collected by Lawson
Z:Transcribed by Trish O'Neil
K:G
G2(DG) EGDF|G2(BG) AGEF|G2(DE) EGBc|dBcA BGAF|
G2(DG) EGDF|G2(BG) AGEF|G2(DG) EGDc|dBAc (BG)G2||
gd (3ddd edcA|BdAc BEE2|gd (3ddd edcA|dBAc (BG)G2|
gd (3ddd edcA|BdAc (BE)E2|cBcd efge|dBAc (BG)G2||


